svg/weather_moonset_up.svg

<svg xmlns="http://www.w3.org/2000/svg" viewBox="0 0 24 24"><path d="M3 12h4c0-1.33.53-2.6 1.46-3.54C9.4 7.53 10.67 7 12 7s2.6.53 3.54 1.46C16.47 9.4 17 10.67 17 12h4c.27 0 .5.11.71.29.19.21.29.45.29.71 0 .27-.1.5-.29.71-.21.19-.44.29-.71.29H3c-.26 0-.5-.1-.71-.29C2.11 13.5 2 13.27 2 13c0-.26.11-.5.29-.71.21-.18.45-.29.71-.29m9.71 4.3 3.11 3.11a.996.996 0 1 1-1.41 1.41L12 18.41l-2.41 2.41a.996.996 0 1 1-1.41-1.41l3.11-3.11c.21-.2.45-.3.71-.3s.5.1.71.3"/></svg>

<svg xmlns="http://www.w3.org/2000/svg" id="mdi-weather-moonset-up" viewBox="0 0 24 24"><path d="M3 12H7C7 10.67 7.53 9.4 8.46 8.46C9.4 7.53 10.67 7 12 7C13.33 7 14.6 7.53 15.54 8.46C16.47 9.4 17 10.67 17 12H21C21.27 12 21.5 12.11 21.71 12.29C21.9 12.5 22 12.74 22 13C22 13.27 21.9 13.5 21.71 13.71C21.5 13.9 21.27 14 21 14H3C2.74 14 2.5 13.9 2.29 13.71C2.11 13.5 2 13.27 2 13C2 12.74 2.11 12.5 2.29 12.29C2.5 12.11 2.74 12 3 12M12.71 16.3L15.82 19.41C16.21 19.8 16.21 20.43 15.82 20.82C15.43 21.21 14.8 21.21 14.41 20.82L12 18.41L9.59 20.82C9.2 21.21 8.57 21.21 8.18 20.82C7.79 20.43 7.79 19.8 8.18 19.41L11.29 16.3C11.5 16.1 11.74 16 12 16C12.26 16 12.5 16.1 12.71 16.3Z" /></svg>
